X:5
M:C
L:1/8
Q:1/4=140
K:A
|: a2(3fga g2e2 | f2 g>ag>g e2 | a2(3fga g2e2 | f>ef>g a2 (3efg |!
a2 (3fga g2e2 | f>fg>a b>g (3efg | a2 (3cde f2 (3Bcd | (3efe (3dcB A2A,2 :|

